;FLAVOR:UltiGCode
;TIME:7113
;MATERIAL:9623
;MATERIAL2:0
;NOZZLE_DIAMETER:0.4
;Generated with Cura_SteamEngine 2.3.1

;LAYER_COUNT:108
;LAYER:0
M107
G10
G0 F3600 X73.851 Y68.984 Z.3
;TYPE:SKIRT
G11
G1 F1800 X74.412 Y68.428 E0.09478
G1 X75.026 Y67.931 E0.18957
G1 X75.687 Y67.499 E0.28433
G1 X76.349 Y67.153 E0.37397
G1 X76.858 Y66.918 E0.44124
G1 X77.591 Y66.624 E0.53602
G1 X78.35 Y66.405 E0.63081
G1 X79.127 Y66.264 E0.72557
G1 X80.131 Y66.2 E0.8463
G1 X142.97 Y66.225 E8.38698
G1 X143.759 Y66.265 E8.48178
G1 X144.539 Y66.385 E8.57648
G1 X145.304 Y66.583 E8.67131
G1 X146.044 Y66.858 E8.76604
G1 X147.001 Y67.349 E8.89511
G1 X147.509 Y67.656 E8.96634
G1 X148.164 Y68.098 E9.06116
G1 X148.77 Y68.604 E9.1559
G1 X149.322 Y69.169 E9.25069
G1 X149.814 Y69.787 E9.34548
G1 X150.241 Y70.451 E9.44021
G1 X150.455 Y70.851 E9.49465
G1 X150.658 Y71.258 E9.54923
G1 X150.974 Y71.981 E9.64391
G1 X151.216 Y72.733 E9.73871
G1 X151.38 Y73.505 E9.83342
G1 X151.465 Y74.291 E9.92829
G1 X151.478 Y74.759 E9.98447
G1 X151.368 Y117.505 E15.11401
G1 X151.326 Y118.294 E15.20882
G1 X151.204 Y119.074 E15.30356
G1 X150.963 Y119.966 E15.41444
G1 X150.857 Y120.282 E15.45443
G1 X150.568 Y121.017 E15.5492
G1 X150.207 Y121.719 E15.64393
G1 X149.776 Y122.381 E15.73872
G1 X149.344 Y122.924 E15.82199
G1 X149.081 Y123.226 E15.87005
G1 X148.533 Y123.794 E15.96476
G1 X147.93 Y124.304 E16.05953
G1 X147.279 Y124.751 E16.15429
G1 X146.586 Y125.129 E16.24902
G1 X145.601 Y125.524 E16.37637
G1 X145.014 Y125.714 E16.4504
G1 X144.251 Y125.919 E16.54521
G1 X143.472 Y126.045 E16.63991
G1 X142.609 Y126.093 E16.74363
G1 X80.215 Y126.069 E24.23091
G1 X79.426 Y126.029 E24.32571
G1 X78.646 Y125.909 E24.42041
G1 X77.881 Y125.711 E24.51523
G1 X77.141 Y125.436 E24.60997
G1 X76.767 Y125.264 E24.65937
G1 X76.24 Y125.004 E24.72988
G1 X75.55 Y124.619 E24.8247
G1 X74.903 Y124.167 E24.91941
G1 X74.305 Y123.651 E25.01419
G1 X73.762 Y123.078 E25.10892
G1 X73.28 Y122.452 E25.20373
G1 X72.864 Y121.781 E25.29847
G1 X72.676 Y121.42 E25.34731
G1 X72.41 Y120.873 E25.4203
G1 X72.101 Y120.146 E25.51509
G1 X71.868 Y119.392 E25.6098
G1 X71.711 Y118.618 E25.70457
G1 X71.625 Y117.481 E25.8414
G1 X71.522 Y74.754 E30.96865
G1 X71.56 Y73.965 E31.06344
G1 X71.678 Y73.184 E31.15823
G1 X71.874 Y72.419 E31.25299
G1 X72.146 Y71.678 E31.34771
G1 X72.616 Y70.752 E31.47233
G1 X72.913 Y70.252 E31.54211
G1 X73.35 Y69.594 E31.6369
G1 X73.851 Y68.984 E31.73162
G0 F3600 X74.174 Y69.224
G1 F1800 X74.724 Y68.686 E31.82395
G1 X75.326 Y68.207 E31.91627
G1 X75.975 Y67.794 E32.00858
G1 X76.517 Y67.516 E32.08168
G1 X77.026 Y67.281 E32.14895
G1 X77.74 Y66.996 E32.24121
G1 X78.48 Y66.786 E32.33351
G1 X79.238 Y66.654 E32.42584
G1 X80.131 Y66.6 E32.5332
G1 X142.97 Y66.625 E40.07388
G1 X143.738 Y66.665 E40.16616
G1 X144.498 Y66.785 E40.25849
G1 X145.241 Y66.983 E40.35076
G1 X145.96 Y67.257 E40.4431
G1 X146.794 Y67.692 E40.55597
G1 X147.302 Y67.999 E40.6272
G1 X147.939 Y68.43 E40.71949
G1 X148.528 Y68.925 E40.81182
G1 X149.062 Y69.479 E40.90415
G1 X149.535 Y70.085 E40.9964
G1 X150.097 Y71.029 E41.12824
G1 X150.3 Y71.436 E41.18281
G1 X150.607 Y72.141 E41.27509
G1 X150.839 Y72.875 E41.36746
G1 X150.994 Y73.628 E41.45972
G1 X151.078 Y74.758 E41.59569
G1 X150.968 Y117.504 E46.72523
G1 X150.926 Y118.272 E46.81753
G1 X150.805 Y119.032 E46.90988
G1 X150.584 Y119.838 E47.01016
G1 X150.478 Y120.154 E47.05016
G1 X150.196 Y120.87 E47.14251
G1 X149.841 Y121.552 E47.23477
G1 X149.417 Y122.194 E47.32709
G1 X149.042 Y122.661 E47.39897
G1 X148.779 Y122.963 E47.44702
G1 X148.245 Y123.516 E47.53927
G1 X147.656 Y124.01 E47.63152
G1 X147.019 Y124.441 E47.72381
G1 X146.34 Y124.803 E47.81615
G1 X145.478 Y125.143 E47.92734
G1 X144.891 Y125.333 E48.00138
G1 X144.148 Y125.532 E48.09368
G1 X143.388 Y125.652 E48.18601
G1 X142.609 Y125.693 E48.27962
G1 X80.215 Y125.669 E55.7669
G1 X79.447 Y125.629 E55.85919
G1 X78.687 Y125.509 E55.95152
G1 X77.944 Y125.311 E56.04379
G1 X76.944 Y124.905 E56.1733
G1 X76.417 Y124.645 E56.24382
G1 X75.746 Y124.27 E56.33606
G1 X75.117 Y123.826 E56.42845
G1 X74.538 Y123.32 E56.52073
G1 X74.015 Y122.757 E56.61294
G1 X73.553 Y122.142 E56.70524
G1 X73.036 Y121.245 E56.82948
G1 X72.77 Y120.698 E56.90247
G1 X72.47 Y119.99 E56.99474
G1 X72.245 Y119.254 E57.0871
G1 X72.098 Y118.499 E57.1794
G1 X72.025 Y117.48 E57.30199
G1 X71.922 Y74.753 E62.42925
G1 X71.96 Y73.985 E62.52152
G1 X72.078 Y73.225 E62.61381
G1 X72.274 Y72.481 E62.70614
G1 X72.546 Y71.761 E62.7985
G1 X72.96 Y70.956 E62.90713
G1 X73.257 Y70.456 E62.97691
G1 X73.683 Y69.816 E63.06917
G1 X74.174 Y69.224 E63.16147
G0 F3600 X74.496 Y69.464
G1 F1800 X75.035 Y68.945 E63.25126
G1 X75.625 Y68.486 E63.34096
G1 X76.262 Y68.093 E63.43078
G1 X76.685 Y67.88 E63.48761
G1 X77.194 Y67.645 E63.55488
G1 X77.889 Y67.368 E63.64466
G1 X78.609 Y67.167 E63.73437
G1 X79.347 Y67.044 E63.82415
G1 X80.131 Y67 E63.91838
G1 X142.97 Y67.025 E71.45906
G1 X143.717 Y67.065 E71.54883
G1 X144.455 Y67.185 E71.63855
G1 X145.177 Y67.383 E71.72839
G1 X145.873 Y67.657 E71.81815
G1 X146.588 Y68.034 E71.91514
G1 X147.096 Y68.341 E71.98637
G1 X147.714 Y68.762 E72.0761
G1 X148.284 Y69.246 E72.16583
G1 X148.8 Y69.788 E72.25564
G1 X149.254 Y70.382 E72.34535
G1 X149.739 Y71.208 E72.4603
G1 X149.942 Y71.615 E72.51487
G1 X150.24 Y72.301 E72.60462
G1 X150.462 Y73.015 E72.69435
G1 X150.608 Y73.749 E72.78416
G1 X150.678 Y74.757 E72.90541
G1 X150.568 Y117.503 E78.03494
G1 X150.526 Y118.25 E78.12473
G1 X150.405 Y118.988 E78.21447
G1 X150.205 Y119.711 E78.30449
G1 X150.099 Y120.027 E78.34448
G1 X149.823 Y120.723 E78.43433
G1 X149.475 Y121.385 E78.52408
G1 X149.058 Y122.006 E78.61384
G1 X148.741 Y122.398 E78.67434
G1 X148.478 Y122.7 E78.72239
G1 X147.957 Y123.237 E78.81218
G1 X147.382 Y123.716 E78.90198
G1 X146.759 Y124.13 E78.99174
G1 X146.096 Y124.476 E79.08149
G1 X145.355 Y124.763 E79.17684
G1 X144.768 Y124.953 E79.25088
G1 X144.045 Y125.145 E79.34065
G1 X143.305 Y125.259 E79.4305
G1 X142.609 Y125.293 E79.51412
G1 X80.215 Y125.269 E87.0014
G1 X79.468 Y125.229 E87.09116
G1 X78.73 Y125.109 E87.18089
G1 X78.008 Y124.911 E87.27073
G1 X77.121 Y124.547 E87.38578
G1 X76.594 Y124.287 E87.4563
G1 X75.942 Y123.92 E87.54608
G1 X75.332 Y123.486 E87.63592
G1 X74.773 Y122.99 E87.7256
G1 X74.269 Y122.437 E87.81538
G1 X73.828 Y121.833 E87.90513
G1 X73.396 Y121.07 E88.01034
G1 X73.13 Y120.523 E88.08333
G1 X72.839 Y119.834 E88.17308
G1 X72.624 Y119.118 E88.26279
G1 X72.486 Y118.382 E88.35265
G1 X72.425 Y117.479 E88.46126
G1 X72.322 Y74.752 E93.58852
G1 X72.36 Y74.005 E93.67827
G1 X72.478 Y73.266 E93.76807
G1 X72.674 Y72.544 E93.85785
G1 X72.945 Y71.847 E93.94759
G1 X73.304 Y71.16 E94.04061
G1 X73.601 Y70.66 E94.11039
G1 X74.017 Y70.038 E94.20019
G1 X74.496 Y69.464 E94.2899
G0 F3600 X74.818 Y69.706
G1 F1800 X75.345 Y69.206 E94.37708
G1 X75.923 Y68.767 E94.46417
G1 X76.852 Y68.243 E94.59216
G1 X77.361 Y68.008 E94.65944
G1 X78.037 Y67.74 E94.7467
G1 X78.737 Y67.548 E94.8338
G1 X79.455 Y67.434 E94.92104
G1 X80.131 Y67.4 E95.00227
G1 X142.97 Y67.425 E102.54295
G1 X143.695 Y67.465 E102.63008
G1 X144.411 Y67.585 E102.7172
G1 X145.11 Y67.783 E102.80438
G1 X145.783 Y68.056 E102.89153
G1 X146.381 Y68.376 E102.97292
G1 X146.889 Y68.683 E103.04415
G1 X147.489 Y69.093 E103.13135
G1 X148.04 Y69.565 E103.21841
G1 X148.536 Y70.096 E103.30561
G1 X148.971 Y70.678 E103.3928
G1 X149.381 Y71.386 E103.49098
G1 X149.584 Y71.793 E103.54555
G1 X149.872 Y72.46 E103.63274
G1 X150.085 Y73.155 E103.71997
G1 X150.22 Y73.868 E103.80705
G1 X150.278 Y74.756 E103.91383
G1 X150.168 Y117.502 E109.04337
G1 X150.126 Y118.227 E109.13052
G1 X150.005 Y118.943 E109.21765
G1 X149.825 Y119.584 E109.29755
G1 X149.719 Y119.9 E109.33755
G1 X149.451 Y120.575 E109.4247
G1 X149.11 Y121.216 E109.51182
G1 X148.7 Y121.816 E109.59903
G1 X148.439 Y122.135 E109.64849
G1 X148.176 Y122.437 E109.69654
G1 X147.67 Y122.958 E109.7837
G1 X147.109 Y123.42 E109.87091
G1 X146.501 Y123.817 E109.95804
G1 X145.853 Y124.146 E110.04525
G1 X145.231 Y124.382 E110.12508
G1 X144.644 Y124.572 E110.19912
G1 X143.942 Y124.758 E110.28627
G1 X143.224 Y124.865 E110.37338
G1 X142.609 Y124.893 E110.44726
G1 X80.215 Y124.869 E117.93454
G1 X79.49 Y124.829 E118.02167
G1 X78.774 Y124.709 E118.10879
G1 X78.075 Y124.511 E118.19597
G1 X77.298 Y124.188 E118.29694
G1 X76.771 Y123.928 E118.36746
G1 X76.138 Y123.571 E118.45467
G1 X75.548 Y123.147 E118.54186
G1 X75.009 Y122.661 E118.62895
G1 X74.526 Y122.118 E118.71615
G1 X74.106 Y121.526 E118.80326
G1 X73.756 Y120.895 E118.88984
G1 X73.49 Y120.348 E118.96283
G1 X73.208 Y119.679 E119.04995
G1 X73.002 Y118.982 E119.13717
G1 X72.874 Y118.267 E119.22434
G1 X72.825 Y117.478 E119.3192
G1 X72.722 Y74.751 E124.44645
G1 X72.76 Y74.026 E124.53357
G1 X72.878 Y73.309 E124.62077
G1 X73.074 Y72.609 E124.708
G1 X73.345 Y71.936 E124.79506
G1 X73.648 Y71.364 E124.87274
G1 X73.945 Y70.864 E124.94252
G1 X74.349 Y70.261 E125.02962
G1 X74.818 Y69.706 E125.11682
G0 F3600 X75.139 Y69.949
G1 F1800 X75.653 Y69.469 E125.20121
G1 X76.219 Y69.05 E125.28572
G1 X77.02 Y68.606 E125.39562
G1 X77.529 Y68.371 E125.46289
G1 X78.184 Y68.113 E125.54737
G1 X78.864 Y67.93 E125.63187
G1 X79.56 Y67.826 E125.71632
G1 X80.13 Y67.8 E125.78479
G1 X142.969 Y67.825 E133.32547
G1 X143.672 Y67.865 E133.40997
G1 X144.366 Y67.985 E133.49448
G1 X145.042 Y68.182 E133.57898
G1 X145.691 Y68.455 E133.66347
G1 X146.174 Y68.719 E133.72952
G1 X146.682 Y69.026 E133.80075
G1 X147.263 Y69.423 E133.88519
G1 X147.795 Y69.884 E133.96966
G1 X148.271 Y70.403 E134.05417
G1 X148.686 Y70.972 E134.13868
G1 X149.023 Y71.565 E134.22053
G1 X149.226 Y71.972 E134.27511
G1 X149.504 Y72.619 E134.35961
G1 X149.707 Y73.293 E134.44408
G1 X149.832 Y73.985 E134.52847
G1 X149.878 Y74.755 E134.62103
G1 X149.768 Y117.501 E139.75057
G1 X149.726 Y118.204 E139.83508
G1 X149.605 Y118.897 E139.9195
G1 X149.446 Y119.457 E139.98935
G1 X149.34 Y119.773 E140.02935
G1 X149.079 Y120.426 E140.11374
G1 X148.745 Y121.046 E140.19825
G1 X148.138 Y121.873 E140.32135
G1 X147.875 Y122.175 E140.3694
G1 X147.383 Y122.679 E140.45392
G1 X146.837 Y123.123 E140.53837
G1 X146.245 Y123.503 E140.62279
G1 X145.613 Y123.814 E140.70731
G1 X145.108 Y124.002 E140.77198
G1 X144.521 Y124.192 E140.84601
G1 X143.84 Y124.37 E140.93048
G1 X143.143 Y124.47 E141.01498
G1 X142.61 Y124.493 E141.079
G1 X80.216 Y124.469 E148.56628
G1 X79.513 Y124.429 E148.65077
G1 X78.819 Y124.309 E148.73529
G1 X78.143 Y124.112 E148.81978
G1 X77.475 Y123.829 E148.90684
G1 X76.948 Y123.569 E148.97736
G1 X76.335 Y123.222 E149.06189
G1 X75.766 Y122.808 E149.14633
G1 X75.247 Y122.332 E149.23083
G1 X74.786 Y121.801 E149.31522
G1 X74.387 Y121.22 E149.39979
G1 X74.115 Y120.72 E149.4681
G1 X73.849 Y120.173 E149.54109
G1 X73.578 Y119.524 E149.62548
G1 X73.382 Y118.848 E149.70995
G1 X73.264 Y118.154 E149.79442
G1 X73.225 Y117.477 E149.8758
G1 X73.122 Y74.75 E155.00305
G1 X73.16 Y74.047 E155.08753
G1 X73.278 Y73.353 E155.17201
G1 X73.474 Y72.677 E155.25647
G1 X73.745 Y72.027 E155.34098
G1 X73.991 Y71.569 E155.40336
G1 X74.288 Y71.069 E155.47315
G1 X74.682 Y70.485 E155.55769
G1 X75.139 Y69.949 E155.64221
G0 F3600 X75.459 Y70.194
G1 F1800 X75.961 Y69.734 E155.72392
G1 X76.514 Y69.336 E155.80568
G1 X77.188 Y68.969 E155.89777
G1 X77.697 Y68.734 E155.96505
G1 X78.331 Y68.486 E156.04674
G1 X78.989 Y68.313 E156.12838
G1 X79.664 Y68.219 E156.21017
G1 X80.13 Y68.2 E156.26613
G1 X142.969 Y68.225 E163.80681
G1 X143.649 Y68.265 E163.88855
G1 X144.319 Y68.385 E163.97023
G1 X144.971 Y68.582 E164.05197
G1 X145.595 Y68.855 E164.1337
G1 X145.967 Y69.061 E164.18473
G1 X146.475 Y69.368 E164.25595
G1 X147.036 Y69.754 E164.33767
G1 X147.548 Y70.203 E164.41939
G1 X148.004 Y70.708 E164.50104
G1 X148.397 Y71.264 E164.58274
G1 X148.665 Y71.743 E164.64861
G1 X148.868 Y72.15 E164.70319
G1 X149.136 Y72.776 E164.7849
G1 X149.328 Y73.429 E164.86658
G1 X149.443 Y74.101 E164.94839
G1 X149.478 Y74.754 E165.02686
G1 X149.368 Y117.5 E170.1564
G1 X149.326 Y118.18 E170.23816
G1 X149.205 Y118.85 E170.31986
G1 X149.067 Y119.33 E170.37979
G1 X148.961 Y119.646 E170.41979
G1 X148.707 Y120.277 E170.50141
G1 X148.38 Y120.875 E170.5832
G1 X147.836 Y121.61 E170.69293
G1 X147.573 Y121.912 E170.74098
G1 X147.096 Y122.398 E170.8227
G1 X146.566 Y122.826 E170.90445
G1 X145.989 Y123.188 E170.98619
G1 X145.374 Y123.48 E171.06788
G1 X144.985 Y123.621 E171.11754
G1 X144.398 Y123.811 E171.19157
G1 X143.739 Y123.982 E171.27327
G1 X143.065 Y124.075 E171.35492
G1 X142.61 Y124.093 E171.40956
G1 X80.216 Y124.069 E178.89684
G1 X79.536 Y124.029 E178.97858
G1 X78.866 Y123.909 E179.06026
G1 X78.214 Y123.712 E179.142
G1 X77.652 Y123.47 E179.21542
G1 X77.125 Y123.21 E179.28594
G1 X76.533 Y122.874 E179.36763
G1 X75.985 Y122.47 E179.44932
G1 X75.487 Y122.005 E179.53109
G1 X75.048 Y121.485 E179.61275
G1 X74.673 Y120.917 E179.69442
G1 X74.475 Y120.545 E179.74499
G1 X74.209 Y119.998 E179.81798
G1 X73.948 Y119.37 E179.89959
G1 X73.762 Y118.715 E179.9813
G1 X73.654 Y118.042 E180.06309
G1 X73.625 Y117.476 E180.1311
G1 X73.522 Y74.749 E185.25836
G1 X73.56 Y74.069 E185.34008
G1 X73.678 Y73.399 E185.42172
G1 X73.874 Y72.746 E185.50354
G1 X74.144 Y72.122 E185.58512
G1 X74.335 Y71.773 E185.63287
G1 X74.632 Y71.273 E185.70265
G1 X75.014 Y70.709 E185.7844
G1 X75.459 Y70.194 E185.86607
G0 F3600 X75.778 Y70.439
G1 F1800 X76.267 Y70.001 E185.94485
G1 X76.806 Y69.625 E186.02371
G1 X77.355 Y69.332 E186.09839
G1 X77.864 Y69.097 E186.16566
G1 X78.477 Y68.859 E186.24457
G1 X79.113 Y68.696 E186.32336
G1 X79.765 Y68.612 E186.40224
G1 X80.13 Y68.6 E186.44607
G1 X142.969 Y68.625 E193.98675
G1 X143.625 Y68.665 E194.06562
G1 X144.271 Y68.785 E194.14446
G1 X144.898 Y68.982 E194.22333
G1 X145.76 Y69.403 E194.33845
G1 X146.268 Y69.71 E194.40967
G1 X146.809 Y70.084 E194.4886
G1 X147.3 Y70.52 E194.56739
G1 X147.734 Y71.013 E194.64621
G1 X148.106 Y71.554 E194.725
G1 X148.307 Y71.922 E194.77531
G1 X148.51 Y72.329 E194.82989
G1 X148.767 Y72.933 E194.90866
G1 X148.949 Y73.565 E194.98758
G1 X149.052 Y74.214 E195.06644
G1 X149.078 Y74.753 E195.13119
G1 X148.968 Y117.499 E200.26073
G1 X148.926 Y118.155 E200.33961
G1 X148.805 Y118.8 E200.41836
G1 X148.688 Y119.202 E200.4686
G1 X148.582 Y119.518 E200.5086
G1 X148.335 Y120.127 E200.58746
G1 X148.017 Y120.702 E200.66631
G1 X147.534 Y121.347 E200.76301
G1 X147.271 Y121.649 E200.81106
G1 X146.81 Y122.118 E200.88998
G1 X146.296 Y122.526 E200.96873
G1 X145.736 Y122.87 E201.04759
G1 X144.862 Y123.241 E201.16153
G1 X144.275 Y123.431 E201.23557
G1 X143.639 Y123.594 E201.31436
G1 X142.987 Y123.68 E201.39327
G1 X142.61 Y123.693 E201.43854
G1 X80.216 Y123.669 E208.92582
G1 X79.56 Y123.629 E209.00469
G1 X78.914 Y123.509 E209.08353
G1 X78.288 Y123.312 E209.16229
G1 X77.829 Y123.112 E209.22237
G1 X77.302 Y122.852 E209.29289
G1 X76.731 Y122.526 E209.37179
G1 X76.205 Y122.133 E209.45058
G1 X75.73 Y121.679 E209.52943
G1 X75.313 Y121.171 E209.60829
G1 X74.835 Y120.371 E209.72013
G1 X74.569 Y119.824 E209.79312
G1 X74.318 Y119.216 E209.87205
G1 X74.143 Y118.583 E209.95086
G1 X74.046 Y117.933 E210.02972
G1 X74.025 Y117.475 E210.08474
G1 X73.922 Y74.748 E215.21199
G1 X73.96 Y74.092 E215.29085
G1 X74.078 Y73.446 E215.36965
G1 X74.273 Y72.819 E215.44844
G1 X74.679 Y71.977 E215.56062
G1 X74.976 Y71.477 E215.6304
G1 X75.346 Y70.934 E215.70925
G1 X75.778 Y70.439 E215.78809
G0 F3600 X76.096 Y70.687
G1 F1800 X76.572 Y70.271 E215.86395
G1 X77.097 Y69.918 E215.93987
G1 X77.523 Y69.695 E215.99757
G1 X78.032 Y69.46 E216.06485
G1 X78.622 Y69.232 E216.14075
G1 X79.235 Y69.08 E216.21654
G1 X80.13 Y69 E216.32436
G1 X142.969 Y69.025 E223.86504
G1 X143.6 Y69.065 E223.94092
G1 X144.221 Y69.185 E224.01681
G1 X144.821 Y69.382 E224.0926
G1 X145.553 Y69.746 E224.1907
G1 X146.061 Y70.053 E224.26192
G1 X146.58 Y70.413 E224.33772
G1 X147.05 Y70.836 E224.4136
G1 X147.462 Y71.315 E224.48942
G1 X147.949 Y72.1 E224.60027
G1 X148.152 Y72.507 E224.65485
G1 X148.398 Y73.09 E224.73078
G1 X148.569 Y73.698 E224.80657
G1 X148.661 Y74.324 E224.8825
G1 X148.678 Y74.752 E224.9339
G1 X148.568 Y117.498 E230.06344
G1 X148.526 Y118.129 E230.13933
G1 X148.406 Y118.749 E230.21511
G1 X148.308 Y119.075 E230.25596
